X:560
T:(untitled)
C:John Malchair's Third Collection of Tunes
F:https://www.vwml.org/record/Malchair/3619/p56
F:www.vwml.org/topics/historic-dance-and-tune-books/Malchair
Z:Eric Conrad Jan 2020
M:2/4
L:1/16
R:march
K:G
P:A
|: D2 | (G4 D2B2) | (G4 D2).d2 | .B2.G2.D2.B2 | (G4 .D2) (ab) |
.a2(ab) .a2(ab) | .a2(ab) .a2(ab) | a2g2f2e2 | d4 z2 :|
P:B
|: A,2 | D4 D3D | F4 F3F | A4 A3A | [Dc]4 z2(de) |
.d2.d2 z2(ga) | .d2.d2 z2g2 | .a2.a2.f2.f2 | g4 z2 :|
P:C
|: D2 | !p!(G4 F2)E2 | (E4 E2)D2 | (E4 D2)C2 | (C2B,2) B,4 |
!f![B,G]2 [B,G]4 [B,G]2 | [GB]2 [GB]4 [GB]2 | d2c2B2A2 | G4 z2 :|

%
